X: 1387
T: An Seanduine Dóite
R: jig
M: 6/8
K: Gmajor
GBe dBG|BcB B2A|GBe dBG|ABA A2B|
GBe dBG|dBd g2a|bag (3efg e|dBG B2A||
g3 gab|eee e2d|g3 gab|bag a2d|
g3 gab|dBd g2a|bag (3efg e|dBG A2G||

